!! 00000] TT[WS
!!!OTL: Qiuxing ku Zhangfu
!!!ARE: Asia, China,ÿShanxi Linxian
!! Ethnic Group: Han
!! WI, 205 (1)
!!!SCT: J0241
!!!YEM: Copyright 1995, estate of Helmut Schaffrath.
**kern
*ICvox
*Ivox
*M2/4
*k[b-e-]
*B-:
{8ccc
8fff
8ddd
16ddd
16ccc
=1
8bb-
4ccc
8ddd
=2
8fff
16ggg
16fff
16ddd
16fff
16ddd
16ccc
=3
8.bb-
16gg
16ff
16gg
8ff}
=4
{8gg
8bb-
8ccc
16ccc
16ddd
=5
8fff
4ccc
8gg
=6
8.bb-
16gg
16ff
16gg
16ff
16dd
=7
2cc}
==
!!!AGN: Xiaodiao. Qingge, Aisu
!!!ONB: ESAC (Essen Associative Code) Database: CHINA
!!!AMT: simple duple
!!!AIN: vox
!!!EED: Helmut Schaffrath
!!!EEV: 1.0
*-
